X:520
T: The Gatehouse Maid
Z: Piano Box Version by Martin Fleischmann
H: Created 2013-09-10 /  Last Modified 2015-05-06
R: reel
M: 4/4
L: 1/8
K: Ador
"am"A2Bd edBA| "G"GGGA GEDz| "am"A2Bd eBBB| "em"gedB BAGB|
"am"A2gf edBA| "G"G2GA GEDG| "am"A2Bd eBBB| "em"egdB {c}BAAe||
"am"a2ea agef| "G"~g2dg Bgdg| "am"a2ea agab| "em"gedB "am"{c}BAAz|
"am"agab agef| "G"~g3a gzge| dega bgag|gedB {c}BAGB||

